X: 13
T: Down The Broom
R: reel
M: 4/4
L: 1/8
K: Ador
|:EAAG A2Bd|eg~g2 egdc|BGGF GAGE|DGBG AGED|
EAAG A2Bd|eg~g2 egdg|eg~g2 dgba|gedB BAAG:|
g|:a2ea ageg|agbg agef|g2dg egdg|gabg ageg|
a2ea ageg|agbg ageg|gedB GABd|e2dB eAAg:|


Tune 514	Setting 21915

